X:1330
T:C K Sharpe Esq Favourite
C:A Pirie
S:MS, Atholl Collection, Perth
Z:Nigel Gatherer
M:6/8
L:1/8
K:G
(3B/c/^c/|d2 B g2 D|b2 g gfg|afd def|gdB GBc|d2 B g2 d|
b2 g gfg|afd def|a3 g2||z|B2 c d2 e|d2 g b2 g|f2 e a2 g|
fge d2 c|B2 c d2 e|d2 g b2 g|fea def a3 g2||B|[G3B3e2] [B3^d3f3]|
g2 g gfe|^d2 b b2 a|agf e2 B|e3 B3|c2 A F2 c|b3 B^c^d|
e3 e2||(3B/c/^c/|d2 B g2 D|b2 g gfg|afd def|
gdB GBc|d2 B g2 d|b2 g gfg|afd def|a3 g2|]
